X:1
T:Occhi soavi e belli
T:Lodovico Agostini
T:Occhi soavi e belli
C:Lodovico Agostini
%%score [ 1 2 3 4 ]
L:1/8
Q:1/4=100
M:4/2
K:C
V:1 alto1 nm="Soprano" snm="S"
V:2 alto2 nm="Alto" snm="A"
V:3 alto nm="Tenor" snm="T"
V:4 bass3 nm="Bass" snm="B"
V:1
 z16 | c8 d4 c4 | _B4 B4 A8 | A4 z2 c4 B4 B2 | c4 ^c4 d3 d =c2 c2 | c2 B2 c4 z2 A2 A4 | %6
w: |Oc- chi so-|a- vi e bel-|li, Oc- chi se-|re- ni ho- ne- sti e leg- gia-|dret- * ti, Hor che|
 A4 B2 d2 ^c4 d2 A2- | A2 A2 _B4 G4 G2 d2- | d2 ^cB c4 d8 | z4 d8 c4 | A2 A4 G2 G4 A4 | %11
w: di voi son pri- vo, In|_ do- lor sem- pre vi-|* * * * vo,|Deh oc-|chi a- mo- ro- set- ti,|
 z2 c4 c2 c4 B2 A2 | A6 A2 ^G4 A4 | G8 G4 z2 A2 | A4 B4 z2 A4 A2- | A2 B2 c4 c2 c2 c4 | %16
w: Poi che pri- va di|voi sen muor mia|vi- ta, Tor-|na- te, oc- chi|_ tor- na- te, tor- na-|
 c4 _B2 A2 A4 A4 | z2 A2 A4 B4 z2 A2- | A2 A4 B2 c4 c2 c2 | c4 c4 B2 d2 ^c4 | d16 |] %21
w: te a dar- le a- i- ta,|Tor- na- te, oc-|* chi tor- na- te, tor-|na- te a dar- le a- i-|ta.|
V:2
 z16 | A8 A4 A4 | F4 G4 E8 | ^F4 z2 G4 G4 G2 | A4 A4 A3 A A2 G2 | G4 G4 z2 F2 F4 | %6
w: |Oc- chi so-|a- vi e bel-|li, Oc- chi se-|re- ni ho- ne- sti e leg- gia-|dret- ti, Hor che|
 E4 G2 A2 A4 A2 F2- | F2 F2 F4 _E4 D4 | A8 ^F8 | z4 A8 A4 | F2 F4 D2 E4 F4 | z2 A4 A2 G4 G2 F2 | %12
w: di voi son pri- vo, In|_ do- lor sem- pre|vi- vo,|Deh oc-|chi a- mo- ro- set- ti,|Poi che pri- va di|
 E6 E2 E4 D4 | D8 E4 z2 F2 | ^F4 G4 z2 E4 F2- | F2 G2 A4 G2 G2 A4 | A4 G2 F2 E4 ^F4 | %17
w: voi sen muor mia|vi- ta, Tor-|na- te, oc- chi|_ tor- na- te, tor- na-|te a dar- le a- i- ta,|
 z2 F2 ^F4 G4 z2 E2- | E2 ^F4 G2 A4 G2 G2 | A4 A4 G2 A2 A4 | ^F16 |] %21
w: Tor- na- te, oc-|* chi tor- na- te, tor-|na- te a dar- le a- i-|ta.|
V:3
 z16 | F8 F4 E4 | D4 D4 ^C8 | D4 z2 E4 E4 D2 | F4 E4 F3 F F2 E2 | D4 E4 z2 D2 C4 | %6
w: |Oc- chi so-|a- vi e bel-|li, Oc- chi se-|re- ni ho- ne- sti e leg- gia-|dret- ti, Hor che|
 C4 D2 F2 E4 D2 C2- | C2 C2 D4 C4 B,4 | E8 D8 | z4 F8 E4 | D2 C4 B,2 C4 C4 | z2 F4 F2 E4 D2 D2 | %12
w: di voi son pri- vo, In|_ do- lor sem- pre|vi- vo,|Deh oc-|chi a- mo- ro- set- ti,|Poi che pri- va di|
 C6 C2 B,4 A,4 | B,8 C4 z2 C2 | D4 D4 z2 ^C4 D2- | D2 D2 F4 E2 E2 E4 | F4 D2 D2 ^C4 D4 | %17
w: voi sen muor mia|vi- ta, Tor-|na- te, oc- chi|_ tor- na- te, tor- na-|te a dar- le a- i- ta,|
 z2 C2 D4 D4 z2 ^C2- | C2 D4 D2 F4 E2 E2 | E4 F4 D2 F2 E4 | D16 |] %21
w: Tor- na- te, oc-|* chi tor- na- te, tor-|na- te a dar- le a- i-|ta.|
V:4
 z16 | F,8 D,4 A,4 | _B,4 G,4 A,8 | D,4 z2 C,4 E,4 G,2 | F,4 A,4 D,3 D, F,2 C,2 | %5
w: |Oc- chi so-|a- vi e bel-|li, Oc- chi se-|re- ni ho- ne- sti e leg- gia-|
 G,4 C,4 z2 D,2 F,4 | A,4 G,2 D,2 A,4 D,2 F,2- | F,2 F,2 _B,,4 C,4 G,4 | A,8 D,8 | z4 D8 A,4 | %10
w: dret- ti, Hor che|di voi son pri- vo, In|_ do- lor sem- pre|vi- vo,|Deh oc-|
 D,2 F,4 G,2 C,4 F,4 | z2 F,4 F,2 C,4 G,2 D,2 | A,6 A,2 E,4 ^F,4 | G,8 C,4 z2 F,2 | %14
w: chi a- mo- ro- set- ti,|Poi che pri- va di|voi sen muor mia|vi- ta, Tor-|
 D,4 G,4 z2 A,4 D,2- | D,2 G,2 F,4 C,2 C2 A,4 | F,4 G,2 D,2 A,4 D,4 | z2 F,2 D,4 G,4 z2 A,2- | %18
w: na- te, oc- chi|_ tor- na- te, tor- na-|te a dar- le a- i- ta,|Tor- na- te, oc-|
 A,2 D,4 G,2 F,4 C,2 C2 | A,4 F,4 G,2 D,2 A,4 | D,16 |] %21
w: * chi tor- na- te, tor-|na- te a dar- le a- i-|ta.|

